X: 34097
T: Reel Des Deux Lisas
R: reel
M: 4/4
K: Dmajor
FG|:A2 fA dA FA|B2gAfA ed|cdef gece|defd A2 FG|
A2 fA dA FA|B2gAfA ed|cdef gece|dfec de fd||
|:a3f defd|efge B2 ed|cdef gece|defd A2 fg|
a3f defd|efge B2 ed|cdef gece|1 dfec defg:|2 dfec d4||

